src/static/icons/twitter.svg

<svg width="24" height="24" viewBox="0 0 24 24" xmlns="http://www.w3.org/2000/svg">
<path d="M9.71188 18.1882C15.3725 18.1882 18.4691 13.4978 18.4691 9.43753C18.4691 9.30628 18.4691 9.17315 18.4634 9.0419C19.0663 8.60548 19.5866 8.06517 20 7.44628C19.4369 7.69457 18.8401 7.85822 18.2291 7.9319C18.8727 7.54719 19.3547 6.94187 19.5856 6.22846C18.9809 6.5867 18.3191 6.83819 17.6291 6.9719C17.1652 6.47786 16.5513 6.15057 15.8826 6.04073C15.2138 5.9309 14.5276 6.04464 13.93 6.36434C13.3325 6.68404 12.857 7.19186 12.5773 7.80914C12.2976 8.42642 12.2292 9.11871 12.3828 9.77878C11.1591 9.71742 9.96202 9.39953 8.8691 8.84572C7.77619 8.29192 6.81189 7.51457 6.03875 6.56409C5.64626 7.24198 5.52648 8.04384 5.70373 8.80684C5.88099 9.56984 6.34199 10.2368 6.99312 10.6722C6.50519 10.6556 6.02799 10.5246 5.6 10.2897V10.3319C5.60084 11.042 5.84685 11.7301 6.29644 12.2798C6.74604 12.8295 7.37164 13.2071 8.0675 13.3488C7.80337 13.4215 7.53053 13.4578 7.25656 13.4566C7.06342 13.4572 6.87067 13.4393 6.68094 13.4032C6.87761 14.0145 7.26057 14.5489 7.77617 14.9317C8.29177 15.3145 8.91419 15.5264 9.55625 15.5378C8.46552 16.3945 7.11819 16.8592 5.73125 16.8569C5.48686 16.8579 5.24265 16.8438 5 16.8147C6.40767 17.7121 8.04247 18.1887 9.71188 18.1882V18.1882Z"/>
</svg>

<svg width="24" height="24" xmlns="http://www.w3.org/2000/svg"><path d="M9.712 18.188c5.66 0 8.757-4.69 8.757-8.75 0-.132 0-.265-.006-.396A6.267 6.267 0 0 0 20 7.446a6.242 6.242 0 0 1-1.77.486 3.095 3.095 0 0 0 1.356-1.704 6.124 6.124 0 0 1-1.957.744 3.08 3.08 0 0 0-5.246 2.807 8.742 8.742 0 0 1-6.344-3.215 3.083 3.083 0 0 0 .954 4.108A3.116 3.116 0 0 1 5.6 10.29v.042a3.083 3.083 0 0 0 2.468 3.017 3.006 3.006 0 0 1-.811.108 3.03 3.03 0 0 1-.576-.054 3.078 3.078 0 0 0 2.875 2.135A6.176 6.176 0 0 1 5 16.815a8.76 8.76 0 0 0 4.712 1.373z"/></svg>
